X:36
T:Country Dance. RDO.36
M:C|
L:1/8
Q:1/2=80
S:Robert D. Owen MS,Indiana,1826.
R:.Country Dance
O:Indiana,USA
A:New Harmony
Z:vmp.Chris Partington
W:a
K:G
Bc|dBcA Ggfe|eddd d2Bd|cded cBAG|FGAF D2Bc|!
dBcA Ggfe|eddd d2Bc|dBcA BGAF|G2B2G2:|!
|:cB|BAAA A2Bc|eddd dgdB|BAAA A2Bc|eddd d2fa|!
gbfa egdf|ceBd AcGB|A2A2d2d2|G2B2g2:|

